!!!SOCIAL_FUNCTION:	isleta
!!!PDT:	1957
!!!OTL: No_43_The_Sound_of_the_Raingods.krn
!!!LING_GROUP: Keresan
!!!LANG: Tone
!!!REG: Southwest
**kern
*staff1
=1-
*clefF4
*k[f#c#]
*M3/4
2r
8.r
16B\
=2
4d\
4d\
8.d\L
16B\Jk
=3
*M7/8
8d\L
8d\J
4d\
4r
8B\
=4!|:
*M3/4
4d\
8.d\L
16f#\Jk
16f#\LL
16e\
16d\
16d\JJ
=5
*M3/8
8B\
8r
8B\
=6
*M2/4
4d\
8.d\L
16f#\Jk
=7
16f#\LL
16e\
16d\
16d\JJ
16B\LL
16A\J
8B\J
=8
4B\
16A\LL
16G\J
8A\J
=9
4A\
8G\
8r
=10
*M3/4
8D\L
8D\J
8D\L
[8D\J
8D\L]
8F#\J
=11
*M2/4
4A\
4F#\
=12
*M3/4
16F#\LK
8.D\J
8D\L
[8D\J
8D\L]
8F#\J
=13
*M3/8
8A\L
16A\L
16D\J
8D\J
=14
*M2/4
4F#\
8F#\L
8D\J
=15
8D\
8r
4r
=16
16F#\LK
8.D\J
4D\
=17
16F#\LK
8.D\J
4D\
=18
*M5/8
8r
8D\
4D\
8D\
=19:|!
*M2/4
8F#\L
8D\J
8F#\L
8A\J
=20
8F#\L
8D\J
8D\L
8D\J
=21
16F#\LK
8.D\J
4D\
=22
8r
8D\
8D\
8r
=23!|:
*M3/8
4d\
8d\
=24
16d\LL
[16A\J
8A\]
8B\J
=25
*M2/4
32B\LLK
[16.A\
16A\]
16F#\JJ
32A\LLK
16.F#\J
8F#\J
=26
*M3/4
8D\L
8D\J
8D\L
[8D\J
8D\L]
8F#\J
=27
*M2/4
8.A\L
16F#\Jk
16A\LL
16F#\J
8F#\J
=28
*M3/4
32F#\LLK
16.D\J
8D\J
8D\L
[8D\J
8D\L]
8F#\J
=29
*M2/4
8.A\L
16D\Jk
8.D\L
16F#\Jk
=30
*M3/4
8F#\L
8F#\J
8D/L
8AA/J
8D\
8r
=31
*M2/4
8D\L
8D\J
8F#\L
8A\J
=32
8F#\L
8D\J
8D\L
8D\J
=33
16F#\LK
8.D\J
4D\
=34
8r
8D\
8D\
8r
=35:|!
*M3/8
4r
8D\
=36
8D\
8r
8D\
=37
*M3/4
4d\
8.d\L
16f#\Jk
16f#\LL
16e\
16d\
16d\JJ
=38
*M3/8
8B\
8r
8B\
=39
*M2/4
4d\
8.d\L
16f#\Jk
=40
16f#\LL
16e\
16d\
16d\JJ
16B\LL
16A\J
8B\J
=41
4B\
16A\LL
16G\J
8A\J
=42
4A\
8G\
8r
=43
*M3/4
4D\
8D\L
[8D\J
8D\L]
8F#\J
=44
!!pagebreak:default
*M2/4
4A\
4F#\
=45
*M3/4
16F#\LK
8.D\J
8D\L
[8D\J
8D\L]
8F#\J
=46
*M3/8
8A\L
8A\
8D\J
=47
*M7/8
4F#\
16F#\LK
8.D\J
4D\
8r
=48
*M2/4
8F#\L
8D\J
8F#\L
8A\J
=49
8F#\L
16D\L
16F#\JJ
16A\LL
16F#\J
8A\J
=50
16F#\LK
8.D\J
8D\
8r
=51
8D\L
8F#\J
8D/L
16AA/Jk
16r
=52
8D\L
8D\J
8D\L
8D\J
=53
*M3/4
8D\L
8A\J
16A\LK
8.F#\J
8D\
8r
=54
16F#\LL
16D\J
8D\J
16F#\LL
16D\
16.D\
32D\JJk
8F#\L
8A\J
=55
8D\L
8D\J
8D\L
8D\J
8D\L
8D\J
==
*-
